Numix-Light/16/status/indicator-keyboard-Br-3.svg

<?xml version="1.0" encoding="UTF-8" standalone="no"?>
<svg
   xmlns:dc="http://purl.org/dc/elements/1.1/"
   xmlns:cc="http://creativecommons.org/ns#"
   xmlns:rdf="http://www.w3.org/1999/02/22-rdf-syntax-ns#"
   xmlns:svg="http://www.w3.org/2000/svg"
   xmlns="http://www.w3.org/2000/svg"
   xmlns:sodipodi="http://sodipodi.sourceforge.net/DTD/sodipodi-0.dtd"
   xmlns:inkscape="http://www.inkscape.org/namespaces/inkscape"
   viewBox="0 0 16 16"
   id="svg2"
   version="1.1"
   inkscape:version="0.91 r13725"
   sodipodi:docname="indicator-keyboard-Br-3.svg">
  <metadata
     id="metadata14">
    <rdf:RDF>
      <cc:Work
         rdf:about="">
        <dc:format>image/svg+xml</dc:format>
        <dc:type
           rdf:resource="http://purl.org/dc/dcmitype/StillImage" />
      </cc:Work>
    </rdf:RDF>
  </metadata>
  <defs
     id="defs12" />
  <sodipodi:namedview
     pagecolor="#ffffff"
     bordercolor="#666666"
     borderopacity="1"
     objecttolerance="10"
     gridtolerance="10"
     guidetolerance="10"
     inkscape:pageopacity="0"
     inkscape:pageshadow="2"
     inkscape:window-width="640"
     inkscape:window-height="480"
     id="namedview10"
     showgrid="false"
     inkscape:zoom="14.75"
     inkscape:cx="8"
     inkscape:cy="8"
     inkscape:window-x="65"
     inkscape:window-y="24"
     inkscape:window-maximized="0"
     inkscape:current-layer="svg2" />
  <path
     style="fill:#353535;fill-opacity:1"
     d="M 1.5996094 0 C 0.71320937 2.9605947e-16 0 0.71320937 0 1.5996094 L 0 14.400391 C 2.9605947e-16 15.286791 0.71320937 16 1.5996094 16 L 14.400391 16 C 15.286791 16 16 15.286791 16 14.400391 L 16 1.5996094 C 16 0.71320937 15.286791 0 14.400391 0 L 1.5996094 0 z M 4.0351562 4.8046875 C 4.3711563 4.8046875 4.6882812 4.8327187 4.9882812 4.8867188 C 5.2942812 4.9407187 5.5610625 5.03025 5.7890625 5.15625 C 6.0170625 5.28225 6.1980781 5.4501562 6.3300781 5.6601562 C 6.4680781 5.8641563 6.5371094 6.1197812 6.5371094 6.4257812 C 6.5371094 6.7617812 6.4493906 7.0490625 6.2753906 7.2890625 C 6.1073906 7.5230625 5.8797969 7.6853906 5.5917969 7.7753906 C 5.7717969 7.8173906 5.9359375 7.8770781 6.0859375 7.9550781 C 6.2359375 8.0330781 6.3684219 8.1357187 6.4824219 8.2617188 C 6.5964219 8.3817188 6.6841406 8.5309375 6.7441406 8.7109375 C 6.8101406 8.8849375 6.8417969 9.0957969 6.8417969 9.3417969 C 6.8417969 9.9297971 6.608625 10.379406 6.140625 10.691406 C 5.672625 10.997406 4.9487031 11.150391 3.9707031 11.150391 C 3.8687031 11.150391 3.7493281 11.144813 3.6113281 11.132812 C 3.4793281 11.126813 3.3412656 11.113703 3.1972656 11.095703 C 3.0592656 11.083703 2.9267813 11.068781 2.8007812 11.050781 C 2.6747813 11.026781 2.5685156 11.002516 2.4785156 10.978516 L 2.4785156 4.9765625 C 2.5865156 4.9465625 2.7058906 4.9222969 2.8378906 4.9042969 C 2.9698906 4.8802969 3.1041875 4.8616094 3.2421875 4.8496094 C 3.3861875 4.8316094 3.52425 4.8204531 3.65625 4.8144531 C 3.79425 4.8084531 3.9211563 4.8046875 4.0351562 4.8046875 z M 4.0351562 5.3261719 C 3.8131562 5.3261719 3.6227969 5.3337031 3.4667969 5.3457031 C 3.3167969 5.3577031 3.1918437 5.372625 3.0898438 5.390625 L 3.0898438 7.5859375 L 4.2773438 7.5859375 C 4.4993437 7.5859375 4.7102031 7.5710156 4.9082031 7.5410156 C 5.1062031 7.5050156 5.2759219 7.4453281 5.4199219 7.3613281 C 5.5699219 7.2713281 5.6874844 7.1537656 5.7714844 7.0097656 C 5.8554844 6.8597656 5.8984375 6.6713594 5.8984375 6.4433594 C 5.8984375 6.2393594 5.8517188 6.0676875 5.7617188 5.9296875 C 5.6717187 5.7856875 5.543 5.668125 5.375 5.578125 C 5.213 5.488125 5.0190156 5.426625 4.7910156 5.390625 C 4.5630156 5.348625 4.3111563 5.3261719 4.0351562 5.3261719 z M 9.703125 6.3535156 C 9.895125 6.3535156 10.076141 6.3684375 10.244141 6.3984375 C 10.418141 6.4284375 10.537516 6.4582812 10.603516 6.4882812 L 10.486328 6.9921875 C 10.438328 6.9681875 10.339453 6.9439219 10.189453 6.9199219 C 10.045453 6.8899219 9.8532813 6.875 9.6132812 6.875 C 9.3612812 6.875 9.1579531 6.8936875 9.0019531 6.9296875 C 8.8519531 6.9656875 8.7530781 6.9955312 8.7050781 7.0195312 L 8.7050781 11.095703 L 8.1191406 11.095703 L 8.1191406 6.6582031 C 8.2691406 6.5922031 8.4762344 6.5269375 8.7402344 6.4609375 C 9.0042344 6.3889375 9.325125 6.3535156 9.703125 6.3535156 z M 3.0898438 8.1074219 L 3.0898438 10.564453 C 3.1798438 10.576453 3.3141406 10.591375 3.4941406 10.609375 C 3.6741406 10.621375 3.8569688 10.628906 4.0429688 10.628906 C 4.3189688 10.628906 4.58575 10.610219 4.84375 10.574219 C 5.10775 10.538219 5.3391094 10.472953 5.5371094 10.376953 C 5.7351094 10.280953 5.8936719 10.148469 6.0136719 9.9804688 C 6.1336719 9.8124687 6.1953125 9.5960312 6.1953125 9.3320312 C 6.1953125 9.0920313 6.1523594 8.8942813 6.0683594 8.7382812 C 5.9843594 8.5762813 5.8649844 8.449375 5.7089844 8.359375 C 5.5529844 8.263375 5.3608125 8.1981094 5.1328125 8.1621094 C 4.9108125 8.1261094 4.6607656 8.1074219 4.3847656 8.1074219 L 3.0898438 8.1074219 z M 12.154297 8.7539062 C 12.357097 8.7539062 12.529528 8.7793781 12.673828 8.8300781 C 12.822028 8.8807781 12.945469 8.953275 13.042969 9.046875 C 13.140469 9.136575 13.212966 9.2463 13.259766 9.375 C 13.306566 9.4997999 13.330078 9.6350031 13.330078 9.7832031 C 13.330078 10.021103 13.265419 10.217041 13.136719 10.369141 C 13.011919 10.517341 12.849291 10.625106 12.650391 10.691406 C 12.759591 10.718706 12.865397 10.759859 12.966797 10.818359 C 13.072097 10.872959 13.166147 10.945456 13.248047 11.035156 C 13.329947 11.120956 13.396566 11.226762 13.447266 11.351562 C 13.497966 11.476363 13.521484 11.623316 13.521484 11.791016 C 13.521484 11.962616 13.492088 12.119372 13.429688 12.263672 C 13.371188 12.407972 13.281056 12.535331 13.160156 12.644531 C 13.043156 12.749831 12.892284 12.834084 12.708984 12.896484 C 12.525684 12.954984 12.312106 12.984375 12.066406 12.984375 C 11.937706 12.984375 11.818184 12.974578 11.708984 12.955078 C 11.603684 12.939478 11.509634 12.919884 11.427734 12.896484 C 11.345834 12.873084 11.275297 12.849572 11.216797 12.826172 C 11.162197 12.802772 11.12105 12.783178 11.09375 12.767578 L 11.193359 12.427734 C 11.216759 12.443334 11.255947 12.462928 11.310547 12.486328 C 11.365147 12.509728 11.429806 12.533241 11.503906 12.556641 C 11.581906 12.576141 11.668119 12.593775 11.761719 12.609375 C 11.859219 12.624975 11.965025 12.632813 12.078125 12.632812 C 12.448625 12.632812 12.713147 12.556397 12.873047 12.404297 C 13.032947 12.248297 13.113281 12.040597 13.113281 11.779297 C 13.113281 11.607697 13.079972 11.464662 13.013672 11.351562 C 12.951272 11.238462 12.8631 11.148331 12.75 11.082031 C 12.6408 11.011831 12.511481 10.962847 12.363281 10.935547 C 12.218981 10.904347 12.066144 10.888672 11.902344 10.888672 L 11.84375 10.888672 L 11.84375 10.574219 L 11.978516 10.574219 C 12.083816 10.574219 12.189628 10.564422 12.298828 10.544922 C 12.411928 10.521522 12.513816 10.480375 12.603516 10.421875 C 12.697116 10.363375 12.773531 10.285 12.832031 10.1875 C 12.894431 10.09 12.925781 9.9646001 12.925781 9.8125 C 12.925781 9.6838 12.904228 9.5760281 12.861328 9.4863281 C 12.818428 9.3927281 12.759647 9.3182719 12.685547 9.2636719 C 12.615347 9.2090719 12.531094 9.1698844 12.433594 9.1464844 C 12.339994 9.1191844 12.242019 9.1054687 12.136719 9.1054688 C 11.926119 9.1054688 11.761531 9.1348594 11.644531 9.1933594 C 11.527531 9.2518594 11.431522 9.3067219 11.357422 9.3574219 L 11.193359 9.0585938 C 11.232359 9.0312937 11.281344 8.9999437 11.339844 8.9648438 C 11.402244 8.9297437 11.474741 8.8964344 11.556641 8.8652344 C 11.638541 8.8340344 11.728672 8.8085625 11.826172 8.7890625 C 11.927572 8.7656625 12.037297 8.7539062 12.154297 8.7539062 z "
     id="path4" />
</svg>

<svg xmlns="http://www.w3.org/2000/svg" viewBox="0 0 16 16">
 <path d="m 1.6 0 c -0.886 0 -1.6 0.713 -1.6 1.6 l 0 12.801 c 0 0.886 0.713 1.6 1.6 1.6 l 12.801 0 c 0.886 0 1.6 -0.713 1.6 -1.6 l 0 -12.801 c 0 -0.886 -0.713 -1.6 -1.6 -1.6 l -12.801 0 z m 2.436 4.805 c 0.336 0 0.653 0.028 0.953 0.082 c 0.306 0.054 0.573 0.144 0.801 0.27 c 0.228 0.126 0.409 0.294 0.541 0.504 c 0.138 0.204 0.207 0.46 0.207 0.766 c 0 0.336 -0.088 0.623 -0.262 0.863 c -0.168 0.234 -0.396 0.396 -0.684 0.486 c 0.18 0.042 0.344 0.102 0.494 0.18 c 0.15 0.078 0.282 0.181 0.396 0.307 c 0.114 0.12 0.202 0.269 0.262 0.449 c 0.066 0.174 0.098 0.385 0.098 0.631 c 0 0.588 -0.233 1.038 -0.701 1.35 c -0.468 0.306 -1.192 0.459 -2.17 0.459 c -0.102 0 -0.221 -0.006 -0.359 -0.018 c -0.132 -0.006 -0.27 -0.019 -0.414 -0.037 c -0.138 -0.012 -0.27 -0.027 -0.396 -0.045 c -0.126 -0.024 -0.232 -0.048 -0.322 -0.072 l 0 -6 c 0.108 -0.03 0.227 -0.054 0.359 -0.072 c 0.132 -0.024 0.266 -0.043 0.404 -0.055 c 0.144 -0.018 0.282 -0.029 0.414 -0.035 c 0.138 -0.006 0.265 -0.01 0.379 -0.01 z m 0 0.521 c -0.222 0 -0.412 0.008 -0.568 0.02 c -0.15 0.012 -0.275 0.027 -0.377 0.045 l 0 2.195 l 1.187 0 c 0.222 0 0.433 -0.015 0.631 -0.045 c 0.198 -0.036 0.368 -0.096 0.512 -0.18 c 0.15 -0.09 0.268 -0.208 0.352 -0.352 c 0.084 -0.15 0.127 -0.338 0.127 -0.566 c 0 -0.204 -0.047 -0.376 -0.137 -0.514 c -0.09 -0.144 -0.219 -0.262 -0.387 -0.352 c -0.162 -0.09 -0.356 -0.152 -0.584 -0.188 c -0.228 -0.042 -0.48 -0.064 -0.756 -0.064 z m 5.668 1.027 c 0.192 0 0.373 0.015 0.541 0.045 c 0.174 0.03 0.293 0.06 0.359 0.09 l -0.117 0.504 c -0.048 -0.024 -0.147 -0.048 -0.297 -0.072 c -0.144 -0.03 -0.336 -0.045 -0.576 -0.045 c -0.252 0 -0.455 0.019 -0.611 0.055 c -0.15 0.036 -0.249 0.066 -0.297 0.09 l 0 4.076 l -0.586 0 l 0 -4.437 c 0.15 -0.066 0.357 -0.131 0.621 -0.197 c 0.264 -0.072 0.585 -0.107 0.963 -0.107 z m -6.613 1.754 l 0 2.457 c 0.09 0.012 0.224 0.027 0.404 0.045 c 0.18 0.012 0.363 0.02 0.549 0.02 c 0.276 0 0.543 -0.019 0.801 -0.055 c 0.264 -0.036 0.495 -0.101 0.693 -0.197 c 0.198 -0.096 0.357 -0.228 0.477 -0.396 c 0.12 -0.168 0.182 -0.384 0.182 -0.648 c 0 -0.24 -0.043 -0.438 -0.127 -0.594 c -0.084 -0.162 -0.203 -0.289 -0.359 -0.379 c -0.156 -0.096 -0.348 -0.161 -0.576 -0.197 c -0.222 -0.036 -0.472 -0.055 -0.748 -0.055 l -1.295 0 z m 9.06 0.646 c 0.203 0 0.375 0.025 0.52 0.076 c 0.148 0.051 0.272 0.123 0.369 0.217 c 0.098 0.09 0.17 0.199 0.217 0.328 c 0.047 0.125 0.07 0.26 0.07 0.408 c 0 0.238 -0.065 0.434 -0.193 0.586 c -0.125 0.148 -0.287 0.256 -0.486 0.322 c 0.109 0.027 0.215 0.068 0.316 0.127 c 0.105 0.055 0.199 0.127 0.281 0.217 c 0.082 0.086 0.149 0.192 0.199 0.316 c 0.051 0.125 0.074 0.272 0.074 0.439 c 0 0.172 -0.029 0.328 -0.092 0.473 c -0.059 0.144 -0.149 0.272 -0.27 0.381 c -0.117 0.105 -0.268 0.19 -0.451 0.252 c -0.183 0.059 -0.397 0.088 -0.643 0.088 c -0.129 0 -0.248 -0.01 -0.357 -0.029 c -0.105 -0.016 -0.199 -0.035 -0.281 -0.059 c -0.082 -0.023 -0.152 -0.047 -0.211 -0.07 c -0.055 -0.023 -0.096 -0.043 -0.123 -0.059 l 0.1 -0.34 c 0.023 0.016 0.063 0.035 0.117 0.059 c 0.055 0.023 0.119 0.047 0.193 0.07 c 0.078 0.019 0.164 0.037 0.258 0.053 c 0.098 0.016 0.203 0.023 0.316 0.023 c 0.37 0 0.635 -0.076 0.795 -0.229 c 0.16 -0.156 0.24 -0.364 0.24 -0.625 c 0 -0.172 -0.033 -0.315 -0.1 -0.428 c -0.062 -0.113 -0.151 -0.203 -0.264 -0.27 c -0.109 -0.07 -0.239 -0.119 -0.387 -0.146 c -0.144 -0.031 -0.297 -0.047 -0.461 -0.047 l -0.059 0 l 0 -0.314 l 0.135 0 c 0.105 0 0.211 -0.01 0.32 -0.029 c 0.113 -0.023 0.215 -0.065 0.305 -0.123 c 0.094 -0.059 0.17 -0.137 0.229 -0.234 c 0.062 -0.098 0.094 -0.223 0.094 -0.375 c 0 -0.129 -0.022 -0.236 -0.064 -0.326 c -0.043 -0.094 -0.102 -0.168 -0.176 -0.223 c -0.07 -0.055 -0.154 -0.094 -0.252 -0.117 c -0.094 -0.027 -0.192 -0.041 -0.297 -0.041 c -0.211 0 -0.375 0.029 -0.492 0.088 c -0.117 0.059 -0.213 0.113 -0.287 0.164 l -0.164 -0.299 c 0.039 -0.027 0.088 -0.059 0.146 -0.094 c 0.062 -0.035 0.135 -0.068 0.217 -0.1 c 0.082 -0.031 0.172 -0.057 0.27 -0.076 c 0.101 -0.023 0.211 -0.035 0.328 -0.035 z" style="fill:#353535;fill-opacity:1"/>
</svg>
